X:1
T: Miss Gunning's Fancy Reel
C:
R:Reel
Q: 232
K:A
M:4/4
L:1/8
ed|c2 ((3cBA) BE E2|CE Ac BE E2|c2 ((3cBA) GA Bc|de fg af ed|
c2 ((3cBA) BE E2|CE Ac BE E2|c2 ((3cBA) GA Bg|ae fd cA A2|
aA aA aA fe|dc BA Ge fg|ae ae ae fe|dB AG Ae fg|
aA aA aA fe|dc BA Ge fg|ag fe fe dc|BE FG A2 e2|
aA c'A aA c'A|bA d'A bA d'A|c'A e'A c'A e'A|dc BA EA A2|
aA c'A aA c'A|bA d'A bA d'A|c'A e'A c'A e'A|dc BA EA A2|
ce fe ce fe|((3fga) ec BE E2|ce fe ce ag|fa gb ag fe|
ce fe ce fe|((3fga) ec BE E2|ec ea fd fa|gb eg ae fd||
